src/news-paper.svg

<?xml version="1.0" encoding="UTF-8" standalone="no"?>
<svg width="20px" height="20px" viewBox="0 0 20 20" version="1.1" xmlns="http://www.w3.org/2000/svg" xmlns:xlink="http://www.w3.org/1999/xlink">
    <!-- Generator: Sketch 3.7.2 (28276) - http://www.bohemiancoding.com/sketch -->
    <title>news-paper</title>
    <desc>Created with Sketch.</desc>
    <defs></defs>
    <g id="Page-1" stroke="none" stroke-width="1" fill="none" fill-rule="evenodd">
        <g id="news-paper" fill="#000000">
            <path d="M4,10 L12,10 L12,12 L4,12 L4,10 L4,10 Z M4,14 L12,14 L12,16 L4,16 L4,14 L4,14 Z M4,4 L12,4 L12,8 L4,8 L4,4 L4,4 Z M16,2 L16,1 L16,0 L0,0 L0,1 L0,1 L0,17.0057979 C0,18.656688 1.34320226,20 3.00012623,20 L17,20 C18.6534829,20 20,18.6601943 20,17.0074602 L20,3 L20,2 L16,2 L16,2 L16,2 Z M16,4 L16,17.0066023 C16,17.5552407 16.4438648,18 17,18 C17.5522847,18 18,17.5553691 18,16.9991283 L18,4 L16,4 L16,4 L16,4 Z M2,2 L14,2 L14,17.0057979 C14,17.3541355 14.0597981,17.6887794 14.1697239,18 L3.00748397,18 C2.44892021,18 2,17.5552407 2,17.0066023 L2,2 L2,2 L2,2 L2,2 Z" id="Combined-Shape"></path>
        </g>
    </g>
</svg>

<svg xmlns="http://www.w3.org/2000/svg" viewBox="0 0 20 20"><path d="M16 2h4v15a3 3 0 0 1-3 3H3a3 3 0 0 1-3-3V0h16v2zm0 2v13a1 1 0 0 0 1 1 1 1 0 0 0 1-1V4h-2zM2 2v15a1 1 0 0 0 1 1h11.17a2.98 2.98 0 0 1-.17-1V2H2zm2 8h8v2H4v-2zm0 4h8v2H4v-2zM4 4h8v4H4V4z"/></svg>
